X: 33
T: Liza Lynn
M: 3/4
L: 1/8
R: waltz
K: Amaj
CD| "A"E2A3B | "A7" c3c Bc | "D" d2A3F | "Bm" D4F2 |
"E7" E2G2>B2 | g2f2g2 | "A" a2ef ed | "E7" c4 CD|
"A"E2A3B | "A7" c3c Bc | "D" d2A3F | "Bm" D4F2 |
"E7"E2G2>B2 | g2f2g2 |"A" a3g ab | a3c cd ||
"A" ea a3A | "A7/C#"Ac c3d | "D"df fd Bd | "Bm"F4(3FGF |
"E7" E2G2>B2 | g2f2g2 | "A"a2ef ed | "E7"c3B cd|
"A" ea a3A | "A7/C#"Ac c3d | "D"df fd Bd | "Bm"F4(3FGF |
"E7" E2G2>B2 | g2f2g2 |  "A"a3g ab | a4 |]
